!!!COM:	Josquin des Prez
!!!CDT:	~1450-1521/08/27
!!!OPR:	Missa Hercules dux Ferrarie
!!!OTA:	Missa Philippus rex Castilie
!!!ONM:	1
!!!OTL:	Kyrie
!!!AGN:	Mass; Kyrie
!!!SCT:	NJE 11.1
!!!SCA:	New Josquin Edition 11.1
!!!voices: 4
!!!voices-OPR: 4(-6)
**kern	**kern	**kern	**kern
*staff4	*staff3	*staff2	*staff1
*Ivox	*Ivox	*Ivox	*Ivox
*I"Bassus	*I"Tenor	*I"Altus	*I"Superius
*I'B	*I'T	*I'A	*I'S
*>[A,B,C]	*>[A,B,C]	*>[A,B,C]	*>[A,B,C]
*>Kyrie1[A]	*>Kyrie1[A]	*>Kyrie1[A]	*>Kyrie1[A]
*>Christe[B]	*>Christe[B]	*>Christe[B]	*>Christe[B]
*>Kyrie2[C]	*>Kyrie2[C]	*>Kyrie2[C]	*>Kyrie2[C]
*clefF4	*clefGv2	*clefGv2	*clefG2
*>A	*>A	*>A	*>A
*k[]	*k[]	*k[]	*k[]
*M3/1	*M3/1	*M3/1	*M3/1
*met(O)	*met(O)	*met(O)	*met(O)
=1-	=1-	=1-	=1-
!!section: Kyrie I
!!!OMD: Kyrie I
0.r	0.r	2.D/	0.d
.	.	4E/	.
.	.	2F/	.
.	.	2G/	.
.	.	2D/	.
.	.	[2F/	.
=2	=2	=2	=2
0.r	0.r	4F/]	0.c
.	.	4E/	.
.	.	2.A/	.
.	.	4G/	.
.	.	2F/	.
.	.	4E/	.
.	.	4D/	.
.	.	2E/	.
=3	=3	=3	=3
2.D\	0.r	0.r	0.d
4E\	.	.	.
2F\	.	.	.
2G\	.	.	.
2D\	.	.	.
[2F\	.	.	.
=4	=4	=4	=4
4F\]	0.r	0.r	0.c
4E\	.	.	.
2.A\	.	.	.
4G\	.	.	.
2F\	.	.	.
4E\	.	.	.
4D\	.	.	.
2E\	.	.	.
=5	=5	=5	=5
1r	0.r	2D/	0.d
.	.	2G/	.
1r	.	2F/	.
.	.	2D/	.
2D\	.	1r	.
2G\	.	.	.
=6	=6	=6	=6
2F\	0.r	1r	0.f
2D\	.	.	.
2r	.	2A/	.
2D\	.	2d\	.
2.F\	.	2c\	.
.	.	2A/	.
4E\	.	.	.
=7	=7	=7	=7
2C/	0.r	2.c\	0.e
2AA/	.	.	.
.	.	4B\	.
2.C/	.	2G/	.
.	.	2E/	.
4D\	.	.	.
2.E\	.	2.G/	.
4F\	.	4A/	.
=8	=8	=8	=8
2G\	0.r	4B\	0.d
.	.	4c\	.
2D\	.	1d	.
2G\	.	.	.
2F\	.	2D/	.
1B-	.	1G	.
=9	=9	=9	=9
2r	0.D	0.F	1a
1A	.	.	.
.	.	.	2.f/
2.F\	.	.	.
.	.	.	4g/
.	.	.	2a/
4G\	.	.	.
2A\	.	.	2A/
=10	=10	=10	=10
0.AA	0.C	2r	1e
.	.	1c	.
.	.	.	2.c/
.	.	2.A/	.
.	.	.	4d/
.	.	.	2e/
.	.	4B\	.
.	.	2c\	2A/
=11	=11	=11	=11
2r	0.D	0.F	1a
1A	.	.	.
.	.	.	2.f/
2.F\	.	.	.
.	.	.	4g/
.	.	.	2a/
4G\	.	.	.
2A\	.	.	2A/
=12	=12	=12	=12
0.AA	0.C	2r	1e
.	.	1c	.
.	.	.	2.c/
.	.	2.A/	.
.	.	.	4d/
.	.	.	2e/
.	.	4B\	.
.	.	2c\	2A/
=13	=13	=13	=13
2r	0.D	1F	1a
1A	.	.	.
.	.	2r	2.f/
2.F\	.	2A/	.
.	.	.	4g/
.	.	2.F/	2a/
4G\	.	.	.
2A\	.	.	2d/
.	.	4G/	.
=14	=14	=14	=14
2D\	0.F	2A/	2r
1A	.	2D/	2a/
.	.	0A	2.f/
2.F\	.	.	.
.	.	.	4g/
.	.	.	2a/
4G\	.	.	.
2A\	.	.	4A/
.	.	.	4B/
=15	=15	=15	=15
2AA/	0.E	2r	4c/
.	.	.	4d/
2.C/	.	2A/	2.e/
.	.	2G/	.
4BB/	.	.	4d/
2GG/	.	2B\	1d
1AA	.	[1Al	.
.	.	.	2c#i/
=16	=16	=16	=16
0.Dl	0.Dl	0.A]	0.dl
!!LO:LB:i:g=z
=17||	=17||	=17||	=17||
*>B	*>B	*>B	*>B
!!section: Christe
!!!OMD: Christe
*M2/1	*M2/1	*M2/1	*M2/1
*met(C|)	*met(C|)	*met(C|)	*met(C|)
1r	0r	0r	1d
1D	.	.	2.f/
.	.	.	4g/
=18	=18	=18	=18
2.F\	0r	1A	1a
4G\	.	.	.
1A	.	2.c\	2r
.	.	.	2A/
.	.	4d\	.
=19	=19	=19	=19
2r	0r	1e	2.c/
2AA/	.	.	.
.	.	.	4d/
2.C/	.	2r	4e/
.	.	.	4f/
.	.	2E/	[2g/
4D\	.	.	.
=20	=20	=20	=20
2.E\	0r	2.G/	2g/]
.	.	.	4f/
4F\	.	4A/	4e/
1G	.	2.B\	2.d/
.	.	4c\	4e/
=21	=21	=21	=21
2r	0r	1d	2.f/
2D\	.	.	.
.	.	.	4g/
2.F\	.	2r	1a
.	.	2A/	.
4G\	.	.	.
=22	=22	=22	=22
1A	0r	2.c\	2r
.	.	.	2A/
.	.	4d\	.
2r	.	1e	2.c/
2AA/	.	.	.
.	.	.	4d/
=23	=23	=23	=23
2.C/	0r	2r	4e/
.	.	.	4f/
.	.	2E/	1g
4D\	.	.	.
2.E\	.	2.G/	.
.	.	.	4f/
4F\	.	4A/	4e/
=24	=24	=24	=24
1G	0r	2.B\	2.d/
.	.	4c\	4e/
2r	.	1d	2.f/
2D\	.	.	.
.	.	.	4g/
=25	=25	=25	=25
2.F\	0A	2r	1a
.	.	2A/	.
4G\	.	.	.
2A\	.	2.c\	1e
2AA/	.	.	.
.	.	4d\	.
=26	=26	=26	=26
2.C/	0G	[0e	2r
.	.	.	2.g/
4D\	.	.	.
1E	.	.	.
.	.	.	4f/
.	.	.	4e/
.	.	.	4d/
=27	=27	=27	=27
2r	0A	0e]	1c
2AA/	.	.	.
2.C/	.	.	2r
.	.	.	2c/
4D\	.	.	.
=28	=28	=28	=28
2.E\	0G	1B	2.g/
4F\	.	.	4f/
1G	.	2r	2.d/
.	.	2B\	.
.	.	.	4e/
=29	=29	=29	=29
2r	0A	2c\	2.f/
2D\	.	1d	.
.	.	.	4g/
2.F\	.	.	2.a/
.	.	[2A/	.
4G\	.	.	4g/
=30	=30	=30	=30
2A\	0c	4A/]	2e/
.	.	4B\	.
2AA/	.	4c\	1cc
.	.	4d\	.
2.C/	.	1e	.
.	.	.	4b\
4D\	.	.	4a/
=31	=31	=31	=31
2.E\	0B	2r	1g
.	.	2e\	.
4F\	.	.	.
1G	.	2d\	2r
.	.	2B\	2g/
=32	=32	=32	=32
2r	[0A	2c\	2a/
2D\	.	2d\	2.f/
2.F\	.	2A/	.
.	.	.	4g/
.	.	2f\	4a/
4G\	.	.	4b\
=33	=33	=33	=33
2A\	0A_	2e\	2cc\
2D\	.	1f	1a
2.F\	.	.	.
.	.	4e\	4g/
4G\	.	4d\	4f/
=34	=34	=34	=34
1A	0A]	[0cl	[0el
1AA	.	.	.
=35	=35	=35	=35
0AAl	0Al	0c]	0e]
!!LO:LB:i:g=z
=36||	=36||	=36||	=36||
*>C	*>C	*>C	*>C
!!section: Kyrie II
!!!OMD: Kyrie II
*M3/1	*M3/1	*M3/1	*M3/1
*met(O|)	*met(O|)	*met(O|)	*met(O|)
0.r	0.r	2.A/	1.a
.	.	4B\	.
.	.	2c\	.
.	.	2d\	2f/
.	.	2A/	1f
.	.	[2d\	.
=37	=37	=37	=37
0.r	0.r	4d\]	2r
.	.	4c\	.
.	.	4B\	1g
.	.	4A/	.
.	.	2G/	.
.	.	2.A/	2e/
.	.	.	1e
.	.	4G/	.
.	.	[2c\	.
=38	=38	=38	=38
0.r	0.r	4c\]	2r
.	.	4B\	.
.	.	4A/	1f
.	.	4G/	.
.	.	2F/	.
.	.	2.G/	2d/
.	.	.	1d
.	.	4F/	.
.	.	[2B-\	.
=39	=39	=39	=39
0.r	0.r	4B-\]	2r
.	.	4A/	.
.	.	4G/	1e
.	.	4F/	.
.	.	2E/	.
.	.	2.F/	2c/
.	.	.	1c
.	.	4E/	.
.	.	[2A/	.
=40	=40	=40	=40
1.A	0.r	4A/]	1r
.	.	4G/	.
.	.	4F/	.
.	.	4E/	.
.	.	2D/	2r
2F\	.	2.f\	2.a/
1F	.	.	.
.	.	4e\	4g/
.	.	2d\	2f/
=41	=41	=41	=41
2r	0.r	2c\	2e/
1G	.	1B	2d/
.	.	.	4e/
.	.	.	4d/
2E\	.	2.e\	2.g/
1E	.	.	.
.	.	4d\	4f/
.	.	2c\	2e/
=42	=42	=42	=42
2r	0.r	2B\	2d/
1F	.	1A	2c/
.	.	.	4d/
.	.	.	4c/
2D\	.	2.d\	2.f/
1D	.	.	.
.	.	4c\	4e/
.	.	2B\	2d/
=43	=43	=43	=43
2r	0.r	2A/	2c/
1E	.	1G	2B/
.	.	.	4c/
.	.	.	4B/
2C/	.	2.c\	2.e/
1C	.	.	.
.	.	4B\	4d/
.	.	2A/	2c/
=44	=44	=44	=44
2r	0.d	2G/	2B/
1D	.	2F/	2A/
.	.	1D	4B/
.	.	.	4A/
2BB-/	.	.	1f
1BB-i	.	1B-	.
.	.	.	4e/
.	.	.	4d/
=45	=45	=45	=45
2r	0.c	1A	0e
1C	.	.	.
.	.	2G/	.
2AA/	.	1.A	.
1AA	.	.	2r
.	.	.	2e/
=46	=46	=46	=46
2r	0.d	2F/	2f/
1BB-i	.	2G/	2.d/
.	.	2D/	.
.	.	.	4c/
2GG/	.	1.G	4B-i/
.	.	.	4A/
1GG	.	.	1B-i
=47	=47	=47	=47
2r	0.c	2.E/	0A
1AA	.	.	.
.	.	4C/	.
.	.	2C/	.
2FF/	.	2.F/	.
1FF	.	.	1a
.	.	4G/	.
.	.	2A/	.
=48	=48	=48	=48
2r	0.d	0D	1f
1BB-i	.	.	.
.	.	.	0b-
2GG/	.	.	.
1GG	.	1G	.
=49	=49	=49	=49
2r	0.f	1.F	1a
1D	.	.	.
.	.	.	2d/
2BB-i/	.	4E/	2.dd\
.	.	4D/	.
1BB-i	.	2d\	.
.	.	.	4cc\
.	.	2D/	4b\
.	.	.	4a/
=50	=50	=50	=50
2r	0.e	2.E/	1g
1C	.	.	.
.	.	4F/	.
.	.	2G/	2r
2AA/	.	2.A/	2.cc\
1AA	.	.	.
.	.	4B\	4b\
.	.	2c\	4a/
.	.	.	4g/
=51	=51	=51	=51
2r	[0.dl	1d	2f/
1BB-i	.	.	2d/
.	.	1D	2f/
2GG/	.	.	2g/
1GG	.	1G	1b-i
=52	=52	=52	=52
0.Dl	0.d]	0.Fl	0.al
==	==	==	==
*-	*-	*-	*-
!!!RDF**kern: l=long note in original notation
!!!RDF**kern: i=editorial accidental
!!!ENC: Jesse Rodin; Victoria Chang 2011/09/10
!!!END: 2011/09/10/
!!!EED:	Jesse Rodin
!!!EEV:	2011/10/26/
!!attribution-level: 1 (secure)
!!!ONB:	Translated from MusicXML and edited on 2011/10/26/ by Craig Sapp
!!muse2ps: T^@{OPR}^u^@{ONM}{. }@{OTL}^C^@{COM}\n@{SCT}^i2I100v85,90,85,100c80Q16
